X:1
T:Spargi Panar di fior
T:Tiburtio Massaino
T:Spargi Panar di fior
C:Tiburtio Massaino
%%score [ 1 2 3 4 ]
L:1/8
Q:1/4=120
M:4/2
K:F
V:1 treble nm="Soprano" snm="S"
V:2 alto1 nm="Alto" snm="A"
V:3 alto2 nm="Tenor" snm="T"
V:4 tenor nm="Bass" snm="B"
V:1
 z16 | z16 | z8 c4 d4 | e2 f4 d2 e2 g2 f4- | f4 e4 d4 c4 | z2 B2 d3 e f4 e4 | z2 c2 c3 d e2 e2 f4 | %7
w: ||Spar- gi|Pa- nar di fior la spon-|* da al- tie- ra,|la spon- da al- tie- ra,|Et voi bei cam- pi her- bo-|
 e4 z4 z2 c2 F3 G | A3 B c4 c4 z2 G2 | A3 B c6 A2 B4- | B4 A4 z4 d4 | c4 B4 A3 B c2 A2 | %12
w: si, Et voi bei|cam- pi her- bo- si, Et|voi bei cam- pi her- bo-|* si, Pren-|de- te i vostr' ho- nor da|
 B2 c2 d4 c8 | z4 z2 c2 d3 e f2 d2 | e2 c2 d2 e2 f8 | e16 || z2 c2 c4 B3 B A4 | c4 c4 c4 A3 B | %18
w: pri- ma- ve- ra,|Pren- de- te i vostr' ho-|nor da pri- ma- ve-|ra.|Et sot- to ar- bo- ri om-|bro- si, Scher- zin le|
 c2 A2 d4 c8 | z8 c4 A3 B | c2 c2 d4 c2 f3 f d2 | f2 e2 d6 c2 c4- | c2 =BA B4 c4 z2 c2 | %23
w: nim- fe a- ma- te,|Scher- zin le|nim- fe a- ma- te, Scher- zin le|nim- fe a- ma- * *|* * * * te, Ne|
 B4 A2 A4 G2 A2 c2 | B4 A4 A4 A2 F2 | B4 G3 G A2 G4 ^F2 | G4 z2 d2 c2 A2 G4 | A4 z2 c2 B4 A4 | %28
w: mai piu o- scur' e fie- ra|Neb- bia co- pra le|lu- ci al- me be- a- *|te, al- me be- a-|te, Ch'in- fio- ran|
 d3 e f4 e2 e4 d2- | d2 c2 d2 A2 c8 | A8 z8 | z8 z4 F3 F | c4 B3 c d2 d2 c2 A2 | G2 A2 z4 c8 | %34
w: l'al- ta ri- va, Ch'in- fio-|* ran l'al- ta ri-|va,|De gl'ho-|nor suoi gia mol- to tem- po|pri- va, gia|
 d3 e f4 e2 f3 e/d/ e2 | f4 z2 c2 B4 A4 | d3 e f4 e2 e4 d2- | d2 c2 d2 A2 c8 | A8 z8 | z8 z4 F3 F | %40
w: mol- to tem- po pri- * * *|va, Ch'in- fio- ran|l'al- ta ri- va, Ch'in- fio-|* ran l'al- ta ri-|va,|De gl'ho-|
 c4 B3 c d2 d2 c2 A2 | G2 A2 z4 c8 | d3 e f4 e2 f3 e/d/ e2 | f2 B2 c3 c c2 A2 c4 | c16 |] %45
w: nor suoi gia mol- to tem- po|pri- va, gia|mol- to tem- po pri- * * *|va, gia mol- to tem- po pri-|va.|
V:2
 z16 | z16 | z8 z4 F4 | A3 B c2 A2 G3 A B2 B2 | A4 G4 G4 A3 A | B3 B A2 F2 c6 B2 | A8 G4 z4 | %7
w: ||Spar-|gi Pa- nar di fior la spon- da al-|tie- ra, Spar- gi Pa-|nar di fior la spon- da al-|tie- ra,|
 G4 A3 B c2 A2 d4 | c4 z4 z4 G4 | C3 D E2 E2 F4 D4 | z2 G2 F2 E2 F3 E DEFG | A2 E2 G2 G2 C4 C2 F2 | %12
w: Et voi bei cam- pi her- bo-|si, Et|voi bei cam- pi her- bo- si,|Pren- de- te i vostr' ho- nor _ _ _|_ da pri- ma- ve- ra, da|
 D2 C2 F2 ED E4 F2 A2 | G2 A2 B2 A2 D4 z2 F2 | A4 =B4 c8 | c16 || z2 A2 A4 F3 F F4 | %17
w: pri- ma- ve- * * * ra, Pren-|de- te i vostr' ho- nor da|pri- ma- ve-|ra.|Et sot- to ar- bo- ri om-|
 G4 G4 A4 F3 G | A2 F2 B4 A8 | z8 G4 F3 G | A2 G2 F4 E2 A3 A G2 | A4 B4 A8 | D8 z4 G4 | %23
w: bro- si, Scher- zin le|nim- fe a- ma- te,|Scher- zin le|nim- fe a- ma- te, Scher- zin le|nim- fe a- ma-|te, Ne|
 G4 F2 F4 G2 F2 E2 | G4 F4 E4 F2 A2 | G4 E4 F2 D2 D4 | D4 A3 A G2 F4 E2 | F8 z2 G2 F3 F | %28
w: mai piu o- scur' e fie- ra|Neb- bia co- pra le|lu- ci al- me be- a-|te, ci al- me be- a- *|te, Ch'in- fio- ran|
 G2 B2 A4 G4 z2 D2 | A6 D2 E3 F G4 | C4 z2 c2 B4 A4 | d3 c B4 A2 c4 A2 | G8 A2 FGAB c2- | %33
w: l'al- ta ri- va, Ch'in-|fio- ran l'al- ta ri-|va, Ch'in- fio- ran|l'al- ta ri- va, De gl'ho-|nor suoi gia _ _ _ _|
 c2 c4 B2 A3 G F4 | D2 B2 c3 c c2 A2 c4- | c4 F4 z2 G2 F3 F | G2 B2 A4 G4 z2 D2 | A6 D2 E3 F G4 | %38
w: _ mol- to tem- po pri-|va, gia mol- to tem- po pri-|* va, Ch'in- fio- ran|l'al- ta ri- va, Ch'in-|fio- ran l'al- ta ri-|
 C4 z2 c2 B4 A4 | d3 c B4 A2 c4 A2 | G8 A2 FGAB c2- | c2 c4 B2 A3 G F4 | D2 B2 c3 c c2 A2 c4 | %43
w: va, Ch'in- fio- ran|l'al- ta ri- va, De gl'ho-|nor suoi gia _ _ _ _|_ mol- to tem- po pri-|va, gia mol- to tem- po pri-|
 c2 F2 A3 A G2 F2 G4 | A16 |] %45
w: va, gia mol- to tem- po pri-|va.|
V:3
 z16 | C4 D3 E F2 C4 F2- | F2 E2 F4 G2 AGFE D2 | C2 C2 F4 E4 D4 | A,3 B, C3 C B,2 D2 E3 F | %5
w: |Spar- gi Pa- nar di fior|_ la spon- da al- tie- * * * *|ra, al- tie- ra, Spar-|gi Pa- nar di fior la spon- da al-|
 G4 F2 D2 A2 A2 G4 | F8 z2 C2 D3 D | E2 E2 F4 E2 F2 D3 E | F3 G A4 G2 C2 C3 B, | %9
w: tie- ra, la spon- da al- tie-|ra, Et voi bei|cam- pi her- bo- si, Et voi bei|cam- pi her- bo- si, Et voi bei|
 A,2 A,2 G,4 F,4 z4 | z4 C4 D3 E F2 D2 | E2 C2 D2 E2 F4 E2 C2 | G2 F2 F2 G2 A8 | %13
w: cam- pi her- bo- si,|Pren- de- te i vostr' ho-|nor da pri- ma- ve- ra, Pren-|de- te i vostr' ho- nor|
 z2 F2 D2 C2 F3 E D4 | C2 E2 G2 G2 A8 | G16 || z2 F2 F4 D3 D D4 | E4 E4 z8 | z8 E4 C3 D | %19
w: da pri- ma- ve- * *|ra, da pri- ma- ve-|ra.|Et sot- to ar- bo- ri om-|bro- si,|Scher- zin le|
 E2 C2 F4 E4 z4 | C4 A,3 B, C2 A,2 D4 | C4 z4 z2 F2 E3 F | G8 C4 z2 E2 | D4 D2 C4 C2 C2 C2 | %24
w: nim- fe a- ma- te,|Scher- zin le nim- fe a- ma-|te, le nim- fe a-|ma- te, Ne|mai piu o- scur' e fie- ra|
 D4 D4 C4 C2 D2 | D4 C4 C2 B,2 A,4 | G,4 z2 F2 E2 C2 C4 | C8 z8 | z2 G2 C3 D E3 F G4 | %29
w: Neb- bia co- pra le|lu- ci al- me be- a-|te, al- me be- a-|te,|Ch'in- fio- ran l'al- ta ri-|
 F2 E2 F3 G A2 G2 z2 G2 | F4 E4 G2 D2 FGAF | GF F4 E2 F4 z4 | z8 D3 D F4 | E3 F G2 D2 F3 G A4 | %34
w: va, Ch'in- fio- * * ran Ch'in-|fio- ran l'al- ta ri- * * *|* * * * va,|De gl'ho- nor|suoi gia mol- to tem- po pri-|
 F2 G2 A3 A G2 F2 G4 | A8 z8 | z2 G2 C3 D E3 F G4 | F2 E2 F3 G A2 G2 z2 G2 | F4 E4 G2 D2 FGAF | %39
w: va, gia mol- to tem- po pri-|va,|Ch'in- fio- ran l'al- ta ri-|va, Ch'in- fio- * * ran Ch'in-|fio- ran l'al- ta ri- * * *|
 GF F3 E/D/ E2 F4 z4 | z8 D3 D F4 | E3 F G2 D2 F3 G A4 | F2 G2 A3 A G2 F2 G4 | %43
w: * * * * * * va,|De gl'ho- nor|suoi gia mol- to tem- po pri-|va, gia mol- to tem- po pri-|
 A2 D2 F3 F E2 D2 E4 | F16 |] %45
w: va, gia mol- to tem- po pri-|va.|
V:4
 z16 | z8 F,4 A,3 B, | C3 C B,2 D2 C2 F,2 B,4 | A,4 z4 C,4 D,3 E, | F,2 D,2 E,3 F, G,2 B,2 A,4 | %5
w: |Spar- gi Pa-|nar di fior la spon- da al- tie-|ra, Spar- gi Pa-|nar di fior la spon- da al- tie-|
 G,4 z2 B,2 A,3 B, C4 | F,8 z8 | C4 F,3 G, A,2 A,2 B,4 | A,4 z2 F,2 C,3 D, E,2 E,2 | %9
w: ra, la spon- da al- tie-|ra,|Et voi bei cam- pi her- bo-|si, Et voi bei cam- pi her-|
 F,4 C,4 z2 F,2 G,3 A, | B,2 G,2 A,2 C2 B,8 | A,4 G,4 F,4 z2 F,2 | G,2 A,2 B,4 A,4 F,4 | %13
w: bo- si, Pren- de- te i|vostr' ho- nor da pri-|ma- ve- ra, da|pri- ma- ve- ra, Pren-|
 B,2 F,2 G,2 A,2 B,6 B,2 | A,4 G,4 F,8 | C16 || z2 F,2 F,4 B,,3 B,, D,4 | C,4 C,4 z8 | %18
w: de- te i vostr' ho- nor da|pri- ma- ve-|ra.|Et sot- to ar- bo- ri om-|bro- si,|
 z8 C4 A,3 B, | C2 A,2 D4 C4 z4 | C,4 F,3 G, A,2 F,2 B,4 | A,4 z2 D,2 F,3 G, A,4 | G,8 z4 C,4 | %23
w: Scher- zin le|nim- fe a- ma- te,|Scher- zin le nim- fe a- ma-|te, le nim- fe a- ma-|te, Ne|
 G,4 D,2 F,4 E,2 F,2 A,2 | G,4 D,4 A,4 F,2 D,2 | G,4 C,4 F,2 G,2 D,4 | G,4 D,4 E,2 F,2 C,4 | %27
w: mai piu o- scur' e fie- ra|Neb- bia co- pra le|lu- ci al- me be- a-|te, al- me be- a-|
 F,8 z8 | z4 F,4 C4 B,4 | A,2 A,2 D4 C4 z2 C,2 | F,4 A,4 G,4 F,4 | B,3 A, G,4 F,8 | %32
w: te,|Ch'in- fio- ran|l'al- ta ri- va, Ch'in-|fio- ran l'al- ta|ri- * * va,|
 C,3 C, G,4 F,2 B,2 A,3 B, | C2 A,2 G,4 F,8 | z2 B,2 F,3 F, C,2 D,2 C,4 | F,8 z8 | z4 F,4 C4 B,4 | %37
w: De gl'ho- nor suoi gia mol- to|tem- po pri- va,|gia mol- to tem- po pri-|va,|Ch'in- fio- ran|
 A,2 A,2 D4 C4 z2 C,2 | F,4 A,4 G,4 F,4 | B,3 A, G,4 F,8 | C,3 C, G,4 F,2 B,2 A,3 B, | %41
w: l'al- ta ri- va, Ch'in-|fio- ran l'al- ta|ri- * * va,|De gl'ho- nor suoi gia mol- to|
 C2 A,2 G,4 F,8 | z2 B,2 F,3 F, C,2 D,2 C,4 | F,2 B,2 F,3 F, C,2 D,2 C,4 | F,16 |] %45
w: tem- po pri- va,|gia mol- to tem- po pri-|va, gia mol- to tem- po pri-|va.|

